X: 5478
T: Buncrana Boy, The
R: slip jig
M: 9/8
K: Amajor
F2B B2A B2A|FGA E2A C2E|F2B B2A G2E|C2B,C2EA2G|
F2B B2A B2A|FGA B2c d2e|f2b e2a c3|Bcd cBA B3:|
b2B d2e f2g|a2A Bcd e2c|d2b f2g a3|b2g e2f d2B|
b2B d2e f2g|a2A Bcd e2g|f2b e2a c3|Bcd cBA B3:|

